X:1
T:Learning to Lean
T:Learning to Lean
T:John Stallings, 1976
C:John Stallings 1976
Z:All Rights Reserved
L:1/8
Q:1/4=80
M:3/4
K:Ab
V:1 treble nm="Voice"
%%MIDI channel 2
%%MIDI program 54
V:1
 z6 | z6 | z6 | z6 | z6 | z4 z B |"Ab" c c4 d |"Ab7" c6 |"Db" B A4 F | A6 |"Ab" E2 A2 c2 | e4 cc | %12
w: |||||I'm|learn ing to|lean|learn ing to|lean|learn ing to|lean on _|
"Bb7" c4- (3cBA |"Eb7" B4 z2 |"Ab" c c4 d | c2"Gb/Bb" B2"Ab7/C" z A |"Db" B A4 F | A4 z F | %18
w: Je _ _ _|sus|find ing more|pow er than|I'd ev er|dreamed I'm|
"Ab" E2 A2 c2 | e4 c2 |"Eb7" B4- BA |"Ab" A6- | A4 z B | c4 (3ccd |"Ab7" c4 z2 |"Db" A4- AF | %26
w: learn ing to|lean on|Je _ _|sus|_ the|joy I can't ex|plain|fill _ my|
 A3 z (3:2:2E2 F |"Ab" A2 A3 A | A2 B3 c |"Eb7sus4" B6- | B2 z3 B |"Ab" c c3- (3ccd | %32
w: soul since the|day I made|Jes sus my|king|_ His|bless ed _ Ho ly|
"Ab7" c c3 z A |"Db" B A4 F | A4 (3z EF |"Ab" A A3"Fm7" (3z AA |"Bbm7" B A3"Eb7" GG |"Ab" A6- | %38
w: Spir it is|lead ing the|way He's _|teach ing and I'm|learn ing _ to|lean|
 A2 z2 B2 |"Ab" c c4 d |"Ab7" c6 |"Db" B A4 F | A6 |"Ab" E2 A2 c2 | e4 cc |"Bb7" c4- (3cBA | %46
w: _ I'm|learn ing to|lean|learn ing to|lean|learn ing to|lean on _|Je _ _ _|
"Eb7" B4 z2 |"Ab" c c4 d | c2"Gb/Bb" B2"Ab7/C" z A |"Db" B A4 F | A4 z F |"Ab" E2 A2 c2 | e4 c2 | %53
w: sus|find ing more|pow er than|I'd ev er|dreamed I'm|learn ing to|lean on|
"Eb7" B4- BA |"Ab" A6- | A4 z B | c4 (3ccd |"Ab7" c4 z2 |"Db" A4- AF | A3 z (3:2:2E2 F | %60
w: Je _ _|sus|_ Some|times we can be|like|man _ who|said life is|
"Ab" A2 A3 A | A2 B3 c |"Eb7sus4" B6- | B2 z3 B |"Ab" c c3- (3ccd |"Ab7" c c3 z A |"Db" B A4 F | %67
w: full now I|have ev ery|thing|_ there|is _ _ a strong|rock _ in|Je sus my|
 A4 (3z EF |"Ab" A A3"Fm7" (3z AA |"Bbm7" B A3"Eb7" GG |"Ab" A6- | A2 z2 B2 |"Ab" c c4 d | %73
w: Lord through my|tri als I've been|learn ing to _|lean|_ I'm|learn ing to|
"Ab7" c6 |"Db" B A4 F | A6 |"Ab" E2 A2 c2 | e4 cc |"Bb7" c4- (3cBA |"Eb7" B4 z2 |"Ab" c c4 d | %81
w: lean|learn ing to|lean|learn ing to|lean on _|Je _ _ _|sus|find ing more|
 c2"Gb/Bb" B2"Ab7/C" z A |"Db" B A4 F | A4 z F |"Ab" E2 A2 c2 | e4 c2 |"Eb7" B4- BA |"Ab" A6- | %88
w: pow er than|I'd ev er|dreamed I'm|learn ing to|lean on|Je _ _|sus|
 A4 z B | c4 (3ccd |"Ab7" c4 z2 |"Db" A4- AF | A3 z (3:2:2E2 F |"Ab" A2 A3 A | A2 B3 c | %95
w: _|sad _ bro ken|hearted|often _ I've|knelt and I've|found God's _|peace so ser|
"Eb7sus4" B6- | B2 z3 B |"Ab" c c3- (3ccd |"Ab7" c c3 z A |"Db" B A4 F | A4 (3z EF | %101
w: ene|_ and|all that _ _ He|asks _ a|child _ like|trust and a|
"Ab" A A3"Fm7" (3z AA |"Bbm7" B A3"Eb7" GG |"Ab" A6- | A2 z2 B2 |"Ab" c c4 d |"Ab7" c6 | %107
w: heart _ that is|learn ing _ to|lean|_ I'm|learn ing to|lean|
"Db" B A4 F | A6 |"Ab" E2 A2 c2 | e4 cc |"Bb7" c4- (3cBA |"Eb7" B4 z2 |"Ab" c c4 d | %114
w: learn ing to|lean|learn ing to|lean on _|Je _ _ _|sus|find ing more|
 c2"Gb/Bb" B2"Ab7/C" z A |"Db" B A4 F | A4 z F |"Ab" E2 A2 c2 | e4 c2 |"Eb7" B4- BA |"Ab" A6- | %121
w: pow er than|I'd ev er|dreamed I'm|learn ing to|lean on|Je _ _|sus|
 A4 z B | c4 (3ccd |"Ab7" c4 z2 |"Db" A4- AF | A3 z (3:2:2E2 F |"Ab" A2 A3 A | A2 B3 c | %128
w: _ There's|glor _ i ous|victory|day now for|me * *|I've found His|peace so ser|
"Eb7sus4" B6- | B2 z3 B |"Ab" c c3- (3ccd |"Ab7" c c3 z A |"Db" B A4 F | A4 (3z EF | %134
w: ene|_ He|helps me _ with _|each task if|on ly I'll|ask ev ery|
"Ab" A A3"Fm7" (3z AA |"Bbm7" B A3"Eb7" GG |"Ab" A6 | A2 z2 B2 |"Ab" c c4 d |"Ab7" c6 | %140
w: day now I am|learn ing to _|lean|_ I'm|learn ing to|lean|
"Db" B A4 F | A6 |"Ab" E2 A2 c2 | e4 cc |"Bb7" c4- (3cBA |"Eb7" B4 z2 |"Ab" c c4 d | %147
w: learn ing to|lean|learn ing to|lean on _|Je _ _ _|sus|find ing more|
 c2"Gb/Bb" B2"Ab7/C" z A |"Db" B A4 F | A4 z F |"Ab" E2 A2 c2 | e4 c2 |"Eb7" B4- BA |"Ab" A6- | %154
w: pow er than|I'd ev er|dreamed I'm|learn ing to|lean on|Je _ _|sus|
 A4 z2 | z6 | z6 | z6 | z6 |] %159
w: _|||||

